X: 194
T:Northern Lights of Old Aberdeen
M:3/4
R:waltz
C: Mary Webb
L:1/8
Z:Alf Warnock alf0@rogers.com
K:A
A2|"D"A2 F2 G2|"F#m"A4 A2|"G"d2 c2 B2|"D"A6|"Em"G2 A2 G2|"A7"F4 E2|"D"A6-|A4 A2|
"D"A4 F2|"F#m"A4 A2|"G"d2 c2 B2|"D"A6|"Em"G2 A2 G2|"A7"F4 E2|"D"D6-|D4 A2|
"G"B2 G2 B2|d2 c2 B2|"D"A6|"D7"A4 AA|"G"B2 G2 B2|"G"d2 c2 B2|"A7"c6-|c4 A2|
"D"A2 A2 F2|"F#m"A4 A2|"G"d2 c2 B2|"D"A6|"Em"G2 A2 G2|"A7"F2 F2 E2|"D"D6-|"A7"D4 "A7"A2|
"D"D4 D2|"Bm"F4 F2|"Em"E2 D2 "A7"E2|"D"D4 "D7"A2|"G"B4 B2|G2 A2 B2|"D"A6-|A4 A2|
"G"B4 B2|"Em"G4 "A7"B2|"D"A4 F2|"Bm"E4 D2|"E7"E4 E2|F4 D2|"A7"A6-|A4 A2|
"D"D4 D2|"Bm"F4 F2|"Em"E2 D2 "A7"E2|"D"D4 A2|"G"B4 B2|"G"G2 A2 B2|"D"A6-|A4 A2|
"G"B4 G2|"Ddim"d4 B2|"D"A4 F2|"Bm"d4 d2|"E7"d4 B2|"A7"c4 d2|"D"d6-|d6|]

